X:10
T: Wolfbedeler  Bb (trad.)
T:Dirigenten-Notiz, Edi Gasser. 
C:Unterwalden (CH)
C:
%%partsbox
M:2/4
%Q:1/4=110
R:Naturjuiz
L:1/4
K:Bb
[P:A]  "feierlicher Anruf" !f!D B/D/ | Fd | B2 | "Echo"  !mp!D B/D/ | Fd | !fermata!B2 | "zügiger"!f!Ff | e/F/ F/e/ | 
c G/F/ | Ff | d/F/ F/d/ | !fermata!B>z | "a tempo" !f!D B/D/ | Fd | B2 | 
!mp!D B/D/ | Fd | !fermata!B2 | Ff | e/F/ F | f  (3e/d/c/ | !fermata!B2 || 
[P:B] "frisch, zügiger" !f! G/F/ | Ff | e/F/ F/e/ | c !mp!G/F/ | "Echo"F f | d/F/ F/d/ | B !f!G/F/ | Ff | e/F/ F | 
e/d/ c/A/ | B>D | F d/c/ | !fermata! !breath!B  !f!G/F/ | Ff | e/F/ F/e/ | c  !mp!G/F/ | 
Ff | d/F/ F/d/ | B !f!G/F/ | Ff | e/F/ F | e/d/ c/A/ | B>z |] 
W: Parts: A-B-A-B
W:
W: UJV-Naturjodelsammlung: Code-Nr: 00-05
W:http://www.naturjodler.ch/tradition-1.htm  (with AUDIO)
%April 21, 2018

